nextcloudappstore/core/static/assets/img/icons/categories/view-dashboard.svg

<svg width="20" height="20" fill="none" style="-webkit-print-color-adjust:exact" version="1.1" viewBox="-0 0 20 20" xmlns="http://www.w3.org/2000/svg"><g rx="0" ry="0" fill="#000"><g class="fills"><path rx="0" ry="0" d="m10.833 2.5v5h6.667v-5m-6.667 15h6.667v-8.333h-6.667m-8.333 8.333h6.667v-5h-6.667m0-1.667h6.667v-8.333h-6.667v8.333z" fill="#007bbd"/></g></g></svg>

<svg xmlns:xlink="http://www.w3.org/1999/xlink" width="20" xmlns="http://www.w3.org/2000/svg" height="20" id="screenshot-db15cf86-6f9e-8025-8002-bbab9ed6fdfc" viewBox="-0 0 20 20" style="-webkit-print-color-adjust: exact;" fill="none" version="1.1"><g id="shape-db15cf86-6f9e-8025-8002-bbab9ed6fdfc" rx="0" ry="0" style="fill: rgb(0, 0, 0);"><g id="shape-db15cf86-6f9e-8025-8002-bbab9ed6fdfe"><g class="fills" id="fills-db15cf86-6f9e-8025-8002-bbab9ed6fdfe"><path rx="0" ry="0" d="M10.833,2.500L10.833,7.500L17.500,7.500L17.500,2.500M10.833,17.500L17.500,17.500L17.500,9.167L10.833,9.167M2.500,17.500L9.167,17.500L9.167,12.500L2.500,12.500M2.500,10.833L9.167,10.833L9.167,2.500L2.500,2.500L2.500,10.833ZZ" style="fill: rgb(0, 123, 189); fill-opacity: 1;"/></g></g></g></svg>
